X:1
T:Hardiman The Fiddler
R:slip jig
M:9/8
L:1/8
K:Dmix
|:A2G FDE F2G|ABA AGA cAG|A2G FDE F2G|Add dcA cAG:|
|:Add d2e f2d|Add dcA cAG|1 Add d2e f2g|agf ged cAG:|2 dcA cde f2g|agf ged cAG|]